client/public/assets/icons/action/new_custom62.svg

<?xml version="1.0"?><svg xmlns="http://www.w3.org/2000/svg" width="52" height="52" viewBox="0 0 52 52"><g fill="#fff"><path d="m47.6 41.2h-43.2c-1.3 0-2.4 1-2.4 2.4 0 1.3 1 2.4 2.4 2.4h43.2c1.3 0 2.4-1 2.4-2.4s-1-2.4-2.4-2.4z m-42.4-4.8h27.2v-3.2c0-0.9 0.7-1.6 1.6-1.6h8c0.9 0 1.6 0.7 1.6 1.6v3.2h3.2c0.9 0 1.6-0.7 1.6-1.6v-27.2c0-0.9-0.7-1.6-1.6-1.6h-41.6c-0.9 0-1.6 0.7-1.6 1.6v27.2c0 0.9 0.7 1.6 1.6 1.6z m7.2-20.8c0-0.9 0.7-1.6 1.6-1.6h23.2c0.9 0 1.6 0.7 1.6 1.6v1.6c0 0.9-0.7 1.6-1.6 1.6h-23.2c-0.9 0-1.6-0.7-1.6-1.6v-1.6z m0 9.6c0-0.9 0.7-1.6 1.6-1.6h15.2c0.9 0 1.6 0.7 1.6 1.6v1.6c0 0.9-0.7 1.6-1.6 1.6h-15.2c-0.9 0-1.6-0.7-1.6-1.6v-1.6z"></path></g></svg>

<?xml version="1.0" encoding="utf-8"?>
<!-- Generator: Adobe Illustrator 18.1.1, SVG Export Plug-In . SVG Version: 6.00 Build 0)  -->
<svg version="1.1" id="Layer_1" xmlns="http://www.w3.org/2000/svg" xmlns:xlink="http://www.w3.org/1999/xlink" x="0px" y="0px"
	 width="52px" height="52px" viewBox="0 0 52 52" enable-background="new 0 0 52 52" xml:space="preserve">
<g>
	<path fill="#FFFFFF" d="M47.6,41.2H4.4c-1.3,0-2.4,1-2.4,2.4l0,0C2,44.9,3,46,4.4,46h43.2c1.3,0,2.4-1,2.4-2.4l0,0
		C50,42.2,49,41.2,47.6,41.2z"/>
	<path fill="#FFFFFF" d="M5.2,36.4h27.2v-3.2c0-0.9,0.7-1.6,1.6-1.6h8c0.9,0,1.6,0.7,1.6,1.6v3.2h3.2c0.9,0,1.6-0.7,1.6-1.6V7.6
		c0-0.9-0.7-1.6-1.6-1.6H5.2C4.3,6,3.6,6.7,3.6,7.6v27.2C3.6,35.7,4.3,36.4,5.2,36.4z M12.4,15.6c0-0.9,0.7-1.6,1.6-1.6h23.2
		c0.9,0,1.6,0.7,1.6,1.6v1.6c0,0.9-0.7,1.6-1.6,1.6H14c-0.9,0-1.6-0.7-1.6-1.6V15.6z M12.4,25.2c0-0.9,0.7-1.6,1.6-1.6h15.2
		c0.9,0,1.6,0.7,1.6,1.6v1.6c0,0.9-0.7,1.6-1.6,1.6H14c-0.9,0-1.6-0.7-1.6-1.6V25.2z"/>
</g>
</svg>
